X:532231 F:http://www.vwml.org/record/HAM/5/32/23%%VWML:HAM-5-32-23-0 T:As I Was A-Riding
S:Mrs Marina Russell, Upwey coll. HED Hammond
O:England
A:Dorset
N:Transcribed from HAM-05-060.gif
F:HAM-05-32-23.abc
Z:EFDSS;PJHeadford
%%stretchlast 0
M:3/4
L:1/4
Q:3/4=45
K:D
A|D>E F|GA B|AE G|FD d|d>B G|GA B|
cd B|A2 B|dA B|=c2 c|BA G|F2 D/ D/|AA B|=cE F|
GF D&xxE|D2||
W:Transcribed from HAM-05-060.gif
W:[left of title:] 525. [below title, on sticky label:] D.791
W:[right of label:] Mrs. Russell, Upwey [initialled at end of tune:] FEP.
